!!!COM: Robert Schumann
!!!CNT: Deutsch
!!!TXO: Deutsch
!!!OTL: Jasminenstrauch
!!!LYR: Ru2ckert
!!!OPR: Lieder und Gesa2nge, i
!!!OPS: Op.27
!!!ONM: No. 4
!!!ENC: Ben Fuhrman
!!!YOR: Schumann Lieder - Max Friedlaender, ed.,
!!!YOR: New York: C. F. Peters, Vol. 1
!!!ODT: 1840/
!!NB: Vocal melody and text only encoded.
!!NB: First instance of melodic material only encoded.:
**kern	**silbe
*clefG2	*
*k[b-]	*
*M6/8	*
!!created: 6/13/06 9:30
!!proofed and posted: 6/13/06 9:30
!!edit time: 15 minutes
=2	=2
{4.a	{Gru2n
8.a	ist
16a	der
8a	Jas-
=3	=3
4b-	-mi-
8f#	-nen-
4.g	-strauch
=4	=4
4e	a-
8e	-bends
(8.e	ein-
16f)	|
8g	-ge-
=5	=5
4.g	-schla-
4.f}	-fen}
=6	=6
{4a	{Als
8a	ihn
4a	mit
8a	des
=7	=7
(8a	Mor-
8d)	|
8a	-gens
4.a	Hauch
=8	=8
4g	Son-
8g	-nen-
(8g	-lich-
8a)	|
8e	-ter
=9	=9
(4f	tra-
8e)	|
4d}	-fen,}
8r	.
=10	=10
{4a	{ist
8a	er
4a	schnee-
8a	-weiss
=11	=11
(8a	auf
8d)	|
8a	-ge-
4.a	-wacht:
=12	=12
4a-	"Wie
8a-	ge-
4a-	-schah
8a-	mir
=13	=13
4a-	in
8an	der
4bn}	Nacht?"}
8r	.
=14	=14
{4cc	{Seht
8e	so
4f	geht
8f	es
=15	=15
4.b-	Ba2u-
4.a-	-men,
=16	=16
4cc	die
8e	im
4f	Fru2h-
8f	-lings
=17	=17
4.b-	tra2u-
4.a}	-men.}
==	==
*-	*-
